images/brands/05.svg

<?xml version="1.0" encoding="UTF-8"?>
<svg xmlns="http://www.w3.org/2000/svg" xmlns:xlink="http://www.w3.org/1999/xlink" width="131px" height="35px" viewBox="0 0 131 35" version="1.1">
<g id="surface1">
<path style=" stroke:none;fill-rule:nonzero;fill:rgb(0%,24.313726%,45.490196%);fill-opacity:1;" d="M 0.339844 14.71875 L 0.339844 0.988281 L 3.03125 0.988281 L 3.03125 14.71875 Z M 6.992188 6.105469 C 7.796875 5.230469 8.875 4.6875 10.015625 4.6875 C 11.160156 4.621094 12.164062 5.160156 12.835938 6.105469 C 13.710938 5.292969 14.785156 4.757812 15.992188 4.6875 C 18.144531 4.6875 19.285156 6.035156 19.285156 8.257812 L 19.285156 14.71875 L 16.734375 14.71875 L 16.734375 8.730469 C 16.734375 7.585938 16.332031 6.4375 15.121094 6.4375 C 13.84375 6.4375 13.105469 7.179688 13.105469 8.863281 L 13.105469 14.71875 L 10.550781 14.71875 L 10.550781 8.730469 C 10.550781 7.382812 9.949219 6.4375 8.875 6.4375 C 7.664062 6.4375 6.925781 7.246094 6.925781 8.929688 L 6.925781 14.71875 L 4.375 14.71875 L 4.375 4.890625 L 6.855469 4.890625 L 6.855469 6.105469 Z M 25.667969 6.304688 C 27.144531 6.304688 27.816406 7.988281 27.816406 9.667969 C 27.816406 11.355469 27.28125 13.4375 25.535156 13.4375 C 24.191406 13.4375 23.179688 12.023438 23.179688 10.007812 C 23.179688 7.648438 24.054688 6.238281 25.667969 6.304688 Z M 23.179688 4.960938 L 20.628906 4.960938 L 20.628906 19.632812 L 23.179688 19.632812 L 23.179688 13.507812 C 23.851562 14.382812 24.925781 14.917969 26.003906 14.988281 C 28.691406 14.988281 30.4375 12.230469 30.4375 9.667969 C 30.4375 7.515625 29.230469 4.757812 26.207031 4.757812 C 24.996094 4.757812 23.851562 5.363281 23.179688 6.371094 Z M 34.132812 8.660156 C 34.132812 7.3125 34.738281 6.167969 36.214844 6.167969 C 37.492188 6.167969 37.960938 7.179688 37.894531 8.660156 Z M 40.246094 10.007812 C 40.445312 7.113281 39.171875 4.621094 36.214844 4.621094 C 33.597656 4.554688 31.445312 6.574219 31.378906 9.199219 C 31.378906 9.335938 31.378906 9.46875 31.378906 9.605469 C 31.378906 12.835938 33.527344 14.917969 36.417969 14.917969 C 37.761719 14.917969 39.039062 14.515625 40.113281 13.84375 L 39.371094 12.496094 C 38.632812 13.035156 37.761719 13.304688 36.820312 13.304688 C 35.207031 13.238281 34 11.890625 34.066406 10.273438 C 34.066406 10.210938 34.066406 10.140625 34.066406 10.074219 L 40.246094 10.074219 Z M 44.007812 6.640625 L 44.546875 5.898438 C 44.882812 5.496094 45.421875 4.6875 46.15625 4.6875 C 46.828125 4.757812 47.433594 5.023438 47.902344 5.5625 L 46.964844 7.382812 C 46.628906 7.179688 46.15625 7.042969 45.753906 7.042969 C 44.882812 7.042969 44.007812 7.785156 44.007812 9.871094 L 44.007812 14.71875 L 41.457031 14.71875 L 41.457031 4.890625 L 44.007812 4.890625 C 44.007812 4.890625 44.007812 6.640625 44.007812 6.640625 Z M 51.265625 4.960938 L 51.265625 14.785156 L 48.710938 14.785156 L 48.710938 4.890625 Z M 48.441406 1.929688 C 48.441406 1.121094 49.113281 0.449219 49.917969 0.449219 C 50.792969 0.382812 51.535156 1.054688 51.597656 1.929688 C 51.667969 2.804688 50.996094 3.542969 50.121094 3.613281 C 49.246094 3.679688 48.507812 3.007812 48.441406 2.132812 C 48.441406 2.0625 48.441406 1.996094 48.441406 1.929688 Z M 58.113281 9.0625 C 58.320312 11.960938 56.976562 13.238281 55.964844 13.238281 C 55.226562 13.167969 54.757812 12.496094 54.824219 11.757812 C 54.824219 10.613281 55.429688 9.871094 56.707031 9.535156 Z M 58.113281 13.304688 C 58.050781 13.773438 58.113281 14.316406 58.320312 14.785156 L 61.003906 14.785156 C 60.734375 14.042969 60.601562 13.238281 60.601562 12.363281 L 60.601562 8.324219 C 60.601562 5.230469 58.453125 4.6875 56.707031 4.6875 C 55.359375 4.6875 54.085938 5.160156 53.078125 6.035156 L 53.882812 7.246094 C 54.554688 6.574219 55.496094 6.238281 56.4375 6.238281 C 57.308594 6.238281 58.050781 6.84375 58.183594 7.71875 L 55.964844 8.390625 C 53.746094 9.0625 52.472656 10.074219 52.472656 11.960938 C 52.339844 13.507812 53.480469 14.855469 55.027344 14.917969 C 55.089844 14.917969 55.160156 14.917969 55.160156 14.917969 C 56.101562 14.785156 56.90625 14.382812 57.578125 13.710938 Z M 62.214844 14.71875 L 62.214844 0.316406 L 64.765625 0.316406 L 64.765625 14.71875 Z M 81.429688 3.480469 C 80.554688 3.007812 79.613281 2.738281 78.671875 2.738281 C 75.917969 2.738281 73.96875 4.6875 73.96875 7.855469 C 73.96875 11.085938 76.1875 13.035156 78.738281 13.035156 C 79.679688 13.035156 80.621094 12.835938 81.429688 12.363281 L 82.164062 14.042969 C 81.089844 14.648438 79.882812 14.988281 78.605469 14.988281 C 73.96875 14.988281 71.082031 11.824219 71.082031 7.785156 C 71.082031 4.015625 73.96875 0.785156 78.671875 0.785156 C 79.949219 0.785156 81.160156 1.1875 82.234375 1.792969 Z M 81.429688 3.480469 "/>
<path style=" stroke:none;fill-rule:nonzero;fill:rgb(0%,24.313726%,45.490196%);fill-opacity:1;" d="M 87.203125 13.507812 C 85.390625 13.507812 84.921875 11.417969 84.921875 9.738281 C 84.921875 8.054688 85.457031 6.167969 87.203125 6.167969 C 88.949219 6.167969 89.554688 8.121094 89.554688 9.738281 C 89.554688 11.355469 89.085938 13.507812 87.203125 13.507812 Z M 87.203125 14.988281 C 90.226562 14.988281 92.242188 12.765625 92.242188 9.738281 C 92.242188 6.980469 90.023438 4.757812 87.273438 4.757812 C 84.519531 4.757812 82.300781 6.980469 82.300781 9.738281 C 82.234375 12.699219 84.25 14.988281 87.203125 14.988281 Z M 93.316406 14.71875 L 93.316406 0.316406 L 95.871094 0.316406 L 95.871094 14.71875 Z M 97.414062 14.71875 L 97.414062 0.316406 L 99.96875 0.316406 L 99.96875 14.71875 Z M 103.730469 8.660156 C 103.730469 7.3125 104.335938 6.167969 105.8125 6.167969 C 107.089844 6.167969 107.558594 7.179688 107.492188 8.660156 Z M 109.910156 10.074219 C 110.113281 7.179688 108.835938 4.6875 105.882812 4.6875 C 103.261719 4.621094 101.113281 6.640625 101.042969 9.265625 C 101.042969 9.398438 101.042969 9.535156 101.042969 9.667969 C 101.042969 12.898438 103.191406 14.988281 106.082031 14.988281 C 107.425781 14.988281 108.703125 14.585938 109.84375 13.910156 L 109.105469 12.5625 C 108.363281 13.035156 107.492188 13.371094 106.554688 13.371094 C 104.941406 13.304688 103.664062 11.960938 103.730469 10.34375 C 103.730469 10.273438 103.730469 10.210938 103.730469 10.140625 Z M 124.421875 8.660156 C 124.421875 7.3125 125.027344 6.167969 126.503906 6.167969 C 127.78125 6.167969 128.25 7.179688 128.1875 8.660156 Z M 130.535156 10.074219 C 130.738281 7.179688 129.460938 4.6875 126.503906 4.6875 C 123.882812 4.621094 121.734375 6.640625 121.667969 9.265625 C 121.667969 9.398438 121.667969 9.535156 121.667969 9.667969 C 121.667969 12.898438 123.820312 14.988281 126.703125 14.988281 C 128.050781 14.988281 129.324219 14.585938 130.46875 13.910156 L 129.726562 12.5625 C 128.992188 13.035156 128.117188 13.371094 127.175781 13.371094 C 125.566406 13.371094 124.355469 12.023438 124.421875 10.140625 Z M 115.753906 6.304688 C 117.300781 6.304688 118.039062 7.917969 118.039062 9.605469 C 118.039062 11.554688 117.300781 13.4375 115.621094 13.4375 C 114.144531 13.4375 113.402344 11.621094 113.402344 9.667969 C 113.402344 7.71875 114.144531 6.238281 115.753906 6.304688 Z M 120.589844 4.960938 L 118.039062 4.960938 L 118.039062 6.167969 L 117.972656 6.167969 C 117.300781 5.230469 116.292969 4.6875 115.148438 4.757812 C 112.53125 4.757812 110.71875 7.246094 110.71875 9.804688 C 110.71875 12.96875 112.398438 15.054688 114.882812 15.054688 C 116.09375 15.054688 117.234375 14.449219 117.972656 13.4375 L 118.039062 13.4375 L 118.039062 14.71875 C 118.039062 17.007812 116.765625 18.015625 115.085938 18.015625 C 113.941406 18.085938 112.800781 17.746094 111.792969 17.140625 L 111.324219 18.757812 C 112.53125 19.363281 113.941406 19.699219 115.285156 19.699219 C 118.109375 19.699219 120.589844 18.285156 120.589844 13.910156 Z M 0.339844 20.574219 L 3.03125 20.574219 L 3.03125 32.417969 L 8.738281 32.417969 L 8.738281 34.238281 L 0.339844 34.238281 Z M 23.585938 25.691406 C 24.523438 24.816406 25.734375 24.273438 27.011719 24.273438 C 29.363281 24.273438 30.503906 25.554688 30.503906 27.980469 L 30.503906 34.304688 L 27.953125 34.304688 L 27.953125 28.3125 C 27.953125 26.96875 27.347656 26.023438 25.9375 26.023438 C 24.726562 25.960938 23.652344 26.898438 23.585938 28.179688 C 23.585938 28.3125 23.585938 28.382812 23.585938 28.515625 L 23.585938 34.371094 L 21.03125 34.371094 L 21.03125 24.542969 L 23.585938 24.542969 Z M 37.089844 25.824219 C 38.699219 25.824219 39.507812 27.441406 39.507812 29.121094 C 39.507812 31.074219 38.769531 32.960938 36.953125 32.960938 C 35.40625 32.960938 34.671875 31.140625 34.671875 29.1875 C 34.671875 27.238281 35.34375 25.824219 37.089844 25.824219 Z M 39.507812 34.304688 L 42.058594 34.304688 L 42.058594 19.898438 L 39.507812 19.898438 L 39.507812 25.621094 L 39.441406 25.621094 C 38.699219 24.679688 37.558594 24.210938 36.347656 24.273438 C 33.660156 24.273438 31.78125 26.765625 31.78125 29.257812 C 31.78125 32.417969 33.527344 34.507812 36.148438 34.507812 C 37.421875 34.507812 38.632812 33.898438 39.441406 32.824219 L 39.507812 32.824219 Z M 48.644531 33.09375 C 46.761719 33.09375 46.226562 31.007812 46.226562 29.257812 C 46.226562 27.640625 46.828125 25.691406 48.644531 25.691406 C 50.457031 25.691406 51.0625 27.640625 51.0625 29.257812 C 51.128906 31.007812 50.59375 33.09375 48.644531 33.09375 Z M 48.644531 34.574219 C 51.398438 34.710938 53.746094 32.554688 53.882812 29.792969 C 53.882812 29.660156 53.882812 29.460938 53.882812 29.324219 C 53.882812 26.160156 51.332031 24.34375 48.644531 24.34375 C 45.957031 24.34375 43.402344 26.160156 43.402344 29.324219 C 43.265625 32.085938 45.421875 34.4375 48.171875 34.574219 C 48.375 34.574219 48.507812 34.574219 48.644531 34.574219 Z M 57.847656 25.691406 C 58.785156 24.816406 59.996094 24.273438 61.273438 24.273438 C 63.625 24.273438 64.765625 25.554688 64.765625 27.980469 L 64.765625 34.304688 L 62.214844 34.304688 L 62.214844 28.3125 C 62.214844 26.96875 61.609375 26.023438 60.199219 26.023438 C 58.988281 25.960938 57.914062 26.898438 57.847656 28.179688 C 57.847656 28.3125 57.847656 28.382812 57.847656 28.515625 L 57.847656 34.371094 L 55.292969 34.371094 L 55.292969 24.542969 L 57.847656 24.542969 Z M 14.382812 33.09375 C 12.5 33.09375 11.964844 31.007812 11.964844 29.257812 C 11.964844 27.640625 12.566406 25.691406 14.382812 25.691406 C 16.195312 25.691406 16.800781 27.640625 16.800781 29.257812 C 16.800781 31.007812 16.332031 33.09375 14.382812 33.09375 Z M 14.382812 34.574219 C 17.136719 34.710938 19.484375 32.554688 19.621094 29.792969 C 19.621094 29.660156 19.621094 29.460938 19.621094 29.324219 C 19.621094 26.160156 17.066406 24.34375 14.382812 24.34375 C 11.695312 24.34375 9.144531 26.160156 9.144531 29.324219 C 9.007812 32.085938 11.160156 34.4375 13.980469 34.574219 C 14.113281 34.574219 14.246094 34.574219 14.382812 34.574219 Z M 14.382812 34.574219 "/>
</g>
</svg>

<svg xmlns="http://www.w3.org/2000/svg" width="131" height="35"><path d="M.34 14.719V.989H3.03v13.73Zm6.652-8.614c.805-.875 1.883-1.418 3.024-1.418 1.144-.066 2.148.473 2.82 1.418.875-.812 1.95-1.347 3.156-1.418 2.153 0 3.293 1.348 3.293 3.57v6.462h-2.55V8.73c0-1.144-.403-2.293-1.614-2.293-1.277 0-2.016.743-2.016 2.426v5.856h-2.554V8.73c0-1.347-.602-2.293-1.676-2.293-1.21 0-1.95.81-1.95 2.493v5.789h-2.55V4.89h2.48v1.214Zm18.676.2c1.477 0 2.148 1.683 2.148 3.363 0 1.687-.535 3.77-2.28 3.77-1.345 0-2.356-1.415-2.356-3.43 0-2.36.875-3.77 2.488-3.703M23.18 4.96h-2.551v14.672h2.55v-6.125c.673.875 1.747 1.41 2.825 1.48 2.687 0 4.433-2.758 4.433-5.32 0-2.152-1.207-4.91-4.23-4.91-1.21 0-2.355.605-3.027 1.613Zm10.953 3.7c0-1.348.605-2.493 2.082-2.493 1.277 0 1.746 1.012 1.68 2.492Zm6.113 1.347c.2-2.895-1.074-5.387-4.031-5.387-2.617-.066-4.77 1.953-4.836 4.578v.406c0 3.23 2.148 5.313 5.039 5.313a7 7 0 0 0 3.695-1.074l-.742-1.348c-.738.54-1.61.809-2.55.809-1.614-.067-2.821-1.414-2.755-3.032v-.199h6.18Zm3.762-3.367.539-.743c.336-.402.875-1.21 1.61-1.21.671.07 1.277.335 1.745.875l-.937 1.82a2.5 2.5 0 0 0-1.211-.34c-.871 0-1.746.742-1.746 2.828v4.848h-2.551V4.89h2.55zm7.258-1.68v9.824H48.71V4.891ZM48.44 1.93c0-.809.672-1.48 1.477-1.48.875-.067 1.617.605 1.68 1.48.07.875-.602 1.613-1.477 1.683-.875.067-1.613-.605-1.68-1.48zm9.672 7.132c.207 2.899-1.136 4.176-2.148 4.176-.738-.07-1.207-.742-1.14-1.48 0-1.145.605-1.887 1.882-2.223Zm0 4.243a2.84 2.84 0 0 0 .207 1.48h2.684a7 7 0 0 1-.402-2.422V8.324c0-3.094-2.149-3.636-3.895-3.636a5.5 5.5 0 0 0-3.629 1.347l.805 1.211c.672-.672 1.613-1.008 2.554-1.008.872 0 1.614.606 1.747 1.48l-2.22.673c-2.218.672-3.491 1.683-3.491 3.57-.133 1.547 1.007 2.894 2.554 2.957h.133a4.15 4.15 0 0 0 2.418-1.207Zm4.102 1.414V.316h2.55V14.72ZM81.43 3.48c-.875-.472-1.817-.742-2.758-.742-2.754 0-4.703 1.95-4.703 5.117 0 3.23 2.219 5.18 4.77 5.18.94 0 1.882-.2 2.69-.672l.735 1.68a7.2 7.2 0 0 1-3.559.945c-4.636 0-7.523-3.164-7.523-7.203 0-3.77 2.887-7 7.59-7 1.277 0 2.488.402 3.562 1.008ZM87.203 13.508c-1.812 0-2.281-2.09-2.281-3.77 0-1.683.535-3.57 2.281-3.57s2.352 1.953 2.352 3.57-.47 3.77-2.352 3.77m0 1.48c3.024 0 5.04-2.222 5.04-5.25a4.966 4.966 0 0 0-4.97-4.98 4.967 4.967 0 0 0-4.972 4.98c-.067 2.961 1.949 5.25 4.902 5.25m6.113-.27V.317h2.555V14.72Zm4.098 0V.317h2.555V14.72Zm6.316-6.058c0-1.348.606-2.492 2.082-2.492 1.278 0 1.747 1.012 1.68 2.492Zm6.18 1.414c.203-2.894-1.074-5.386-4.027-5.386-2.621-.067-4.77 1.953-4.84 4.578v.402c0 3.23 2.148 5.32 5.039 5.32 1.344 0 2.621-.402 3.762-1.078l-.739-1.348c-.742.473-1.613.81-2.55.81-1.614-.067-2.89-1.411-2.825-3.028v-.203Zm14.512-1.414c0-1.348.605-2.492 2.082-2.492 1.277 0 1.746 1.012 1.683 2.492Zm6.113 1.414c.203-2.894-1.074-5.386-4.031-5.386-2.621-.067-4.77 1.953-4.836 4.578v.402c0 3.23 2.152 5.32 5.035 5.32 1.348 0 2.621-.402 3.766-1.078l-.742-1.348c-.735.473-1.61.81-2.551.81-1.61 0-2.82-1.349-2.754-3.231Zm-14.781-3.77c1.547 0 2.285 1.614 2.285 3.301 0 1.95-.738 3.832-2.418 3.832-1.476 0-2.219-1.816-2.219-3.769 0-1.95.743-3.43 2.352-3.363m4.836-1.343h-2.55v1.207h-.067c-.672-.938-1.68-1.48-2.825-1.41-2.617 0-4.43 2.488-4.43 5.047 0 3.164 1.68 5.25 4.165 5.25 1.21 0 2.351-.606 3.09-1.617h.066v1.28c0 2.29-1.273 3.298-2.953 3.298-1.145.07-2.285-.27-3.293-.875l-.469 1.617a9 9 0 0 0 3.961.941c2.824 0 5.305-1.414 5.305-5.789ZM.34 20.574H3.03v11.844h5.707v1.82H.34Zm23.246 5.117c.937-.875 2.148-1.418 3.426-1.418 2.351 0 3.492 1.282 3.492 3.707v6.325h-2.55v-5.992c0-1.344-.606-2.29-2.017-2.29-1.21-.062-2.285.875-2.351 2.157v6.191000000000001H21.03v-9.828h2.555Zm13.504.133c1.61 0 2.418 1.617 2.418 3.297 0 1.953-.738 3.84-2.555 3.84-1.547 0-2.281-1.82-2.281-3.773 0-1.95.672-3.364 2.418-3.364m2.418 8.48h2.55V19.899h-2.55v5.723h-.067c-.742-.941-1.882-1.41-3.093-1.348-2.688 0-4.567 2.493-4.567 4.985 0 3.16 1.746 5.25 4.367 5.25 1.274 0 2.485-.61 3.293-1.684h.067Zm9.137-1.21c-1.883 0-2.418-2.086-2.418-3.836 0-1.617.601-3.567 2.418-3.567 1.812 0 2.417 1.95 2.417 3.567.067 1.75-.468 3.836-2.417 3.836m0 1.48c2.753.137 5.101-2.02 5.238-4.781v-.469c0-3.164-2.551-4.98-5.238-4.98s-5.243 1.816-5.243 4.98c-.136 2.762 2.02 5.113 4.77 5.25zm9.203-8.883c.937-.875 2.148-1.418 3.425-1.418 2.352 0 3.493 1.282 3.493 3.707v6.325h-2.551v-5.992c0-1.344-.606-2.29-2.016-2.29-1.21-.062-2.285.875-2.351 2.157v6.191000000000001h-2.555v-9.828h2.555Zm-43.465 7.403c-1.883 0-2.418-2.086-2.418-3.836 0-1.617.601-3.567 2.418-3.567 1.812 0 2.418 1.95 2.418 3.567 0 1.75-.469 3.836-2.418 3.836m0 1.48c2.754.137 5.101-2.02 5.238-4.781v-.469c0-3.164-2.555-4.98-5.238-4.98-2.688 0-5.238 1.816-5.238 4.98-.137 2.762 2.015 5.113 4.835 5.25zm0 0" style="stroke:none;fill-rule:nonzero;fill:#003e74;fill-opacity:1"/></svg>
